Origami/64x64/apps/spacemacs.svg

<svg width="64" height="64" version="1" xmlns="http://www.w3.org/2000/svg">
 <rect transform="matrix(0,-1,-1,0,0,0)" x="-61" y="-60" width="56" height="56" rx="28" ry="28" style="opacity:.2"/>
 <rect transform="matrix(0,-1,-1,0,0,0)" x="-60" y="-60" width="56" height="56" rx="28" ry="28" style="fill-opacity:.99199997;fill:#8366b2"/>
 <path d="M 32,4 C 16.488,4 4,16.488 4,32 c 0,0.11345 0.01128,0.224113 0.017578,0.335938 C 4.3691213,17.134181 16.710728,5 32,5 47.289272,5 59.630879,17.134181 59.982422,32.335938 59.98872,32.224113 60,32.11345 60,32 60,16.488 47.512,4 32,4 Z" style="fill:#ffffff;opacity:.1"/>
 <path d="m12.800781 4c-1.702588-0.0333938-3.0465566 0.4414304-4.222656 1.4726562-2.8302905 2.4944353-3.3200729 7.5508898-1.40625 14.552735 0.172588-0.330856 0.3479509-0.659572 0.5332031-0.982422-1.2418392-5.142527-1.0570199-6.894236 1.2910157-8.9375 2.0234962-1.7529769 5.2282802-1.8975883 9.2343752-0.4140628 7.119851 2.6365418 15.071155 6.9498058 23.167969 17.226563 0.764161 0.969898 1.301531 2.226618 1.953124 3.039062-2.073839 0.03722-5.221955-0.164999-7.933593-0.652343-10.20116-1.833165-19.80802-6.000176-24.3125-10.699219-0.403354-0.420775-0.732808-0.734136-0.734375-0.699219-0.0018 0.03584 0.907898 1.881379 2.019531 4.097656l1.671875 3.875 2.484375 1.203125c2.702476 1.327494 6.144712 2.877727 13.621094 6.136719 8.190668 3.570286 11.858657 5.286513 15.578125 7.292969 2.980818 1.608 6.010514 3.569648 7.539062 4.878906 0.520832 0.447942 0.641758 0.562205 0.6875 0.609375 0.0017-0.03374 0.03858-0.198739 0.02344-0.332031-0.09904-0.726948-0.669373-3.601401-1.199219-6.261719-0.11462-0.602596-0.240017-1.203038-0.359375-1.804688-0.05488-0.274182-0.126941-0.646598-0.175781-0.890624-0.07768-0.388126-0.16628-0.754375-0.246094-1.136719-1.123258-5.39338-2.431374-10.748434-4.09375-16.019531-0.766596-2.400802-1.249752-3.563682-2.039063-4.988282-0.292133-0.527431-3.51906-2.689703-4.074218-2.980468-9e-3 -0.0046-0.0445-0.0454-0.05078-0.04688l-0.0039 0.0078c-0.02028-0.01006-0.162615-0.107059-0.171875-0.109375l-0.0039 0.0039c-0.0072-0.0024-0.0097-0.0033-0.01172-0.0039-0.03274 0.02993 0.219732 0.579502 0.492188 1.058594 2.790792 4.908279 4.623678 12.876322 3.691406 17-0.0156 0.06408-0.02722 0.129152-0.05078 0.195312-0.0012 0.0034-0.0031 0.0091-0.0039 0.01172v0.0039c-0.0022-7e-4 -0.0097-0.0033-0.01172-0.0039-0.02176 8e-3 -0.08165 0.0196-0.109375 0.02734-0.761257-0.97664-1.429142-2.415909-2.359396-3.632793-5.71349-7.335117-16.146952-18.108274-26.921875-21.5-1.320861-0.3747709-2.470635-0.57762-3.492188-0.5976562z" style="opacity:.2"/>
 <path d="m12.800781 3c-1.702588-0.0333938-3.0465566 0.4414304-4.222656 1.4726562-2.8302905 2.4944353-3.3200729 7.5508898-1.40625 14.552735 0.172588-0.330856 0.3479509-0.659572 0.5332031-0.982422-1.2418392-5.142527-1.0570199-6.894236 1.2910157-8.9375002 2.0234962-1.7529767 5.2282802-1.8975881 9.2343752-0.4140626 7.119851 2.6365418 15.071155 6.9498058 23.167969 17.226563 0.764161 0.969898 1.301531 2.226618 1.953124 3.039062-2.073839 0.03722-5.221955-0.164999-7.933593-0.652343-10.20116-1.833165-19.80802-6.000176-24.3125-10.699219-0.403354-0.420775-0.732808-0.734136-0.734375-0.699219-0.0018 0.03584 0.907898 1.881379 2.019531 4.097656l1.671875 3.875 2.484375 1.203125c2.702476 1.327494 6.144712 2.877727 13.621094 6.136719 8.190668 3.570286 11.858657 5.286513 15.578125 7.292969 2.980818 1.608 6.010514 3.569648 7.539062 4.878906 0.520832 0.447942 0.641758 0.562205 0.6875 0.609375 0.0017-0.03374 0.038578-0.198739 0.023438-0.332031-0.09904-0.726948-0.669373-3.601401-1.199219-6.261719-0.11462-0.602596-0.240017-1.203038-0.359375-1.804688-0.05488-0.274182-0.126941-0.646598-0.175781-0.890624-0.07768-0.388126-0.16628-0.754375-0.246094-1.136719-1.123258-5.39338-2.431374-10.748434-4.09375-16.019531-0.766596-2.400802-1.249752-3.563682-2.039063-4.988282-0.292133-0.527431-3.51906-2.689703-4.074218-2.980468-9e-3 -0.0046-0.044501-0.045395-0.050782-0.046876l-0.003906 0.007813c-0.02028-0.01006-0.162615-0.107059-0.171875-0.109375l-0.003906 0.003906c-0.0072-0.0024-0.009719-0.003306-0.011719-0.003906-0.03274 0.02993 0.219732 0.579502 0.492188 1.058594 2.790792 4.908279 4.623678 12.876322 3.691406 17-0.0156 0.06408-0.027221 0.129152-0.050781 0.195312-0.0012 0.0034-0.003106 0.009119-0.003907 0.011719v0.003906c-0.0022-7e-4 -0.009718-0.003306-0.011718-0.003906-0.02176 8e-3 -0.081655 0.019604-0.109375 0.027344-0.761236-0.97666-1.429121-2.415929-2.359375-3.632813-5.71349-7.335117-16.146952-18.108274-26.921875-21.5-1.320861-0.3747709-2.470635-0.57762-3.492188-0.5976562z" style="fill:#ffffff"/>
</svg>

<svg xmlns="http://www.w3.org/2000/svg" width="64" height="64" version="1">
 <rect style="opacity:0.2" width="56" height="56" x="-61" y="-60" rx="28" ry="28" transform="matrix(0,-1,-1,0,0,0)"/>
 <rect width="56" height="56" x="-60" y="-60" rx="28" ry="28" transform="matrix(0,-1,-1,0,0,0)" style="fill:#8366b2;fill-opacity:0.99199997"/>
 <path d="M 32,4 C 16.488,4 4,16.488 4,32 c 0,0.11345 0.01128,0.224113 0.017578,0.335938 C 4.3691213,17.134181 16.710728,5 32,5 47.289272,5 59.630879,17.134181 59.982422,32.335938 59.98872,32.224113 60,32.11345 60,32 60,16.488 47.512,4 32,4 Z" style="opacity:0.1;fill:#ffffff"/>
 <path style="opacity:0.2" d="M 12.800781,4 C 11.098193,3.9666062 9.7542244,4.4414304 8.578125,5.4726562 5.7478345,7.9670915 5.2580521,13.023546 7.171875,20.025391 7.344463,19.694535 7.5198259,19.365819 7.7050781,19.042969 6.4632389,13.900442 6.6480582,12.148733 8.9960938,10.105469 11.01959,8.3524921 14.224374,8.2078807 18.230469,9.6914062 25.35032,12.327948 33.301624,16.641212 41.398438,26.917969 c 0.764161,0.969898 1.301531,2.226618 1.953124,3.039062 -2.073839,0.03722 -5.221955,-0.164999 -7.933593,-0.652343 -10.20116,-1.833165 -19.80802,-6.000176 -24.3125,-10.699219 -0.403354,-0.420775 -0.732808,-0.734136 -0.734375,-0.699219 -0.0018,0.03584 0.907898,1.881379 2.019531,4.097656 l 1.671875,3.875 2.484375,1.203125 c 2.702476,1.327494 6.144712,2.877727 13.621094,6.136719 8.190668,3.570286 11.858657,5.286513 15.578125,7.292969 2.980818,1.608 6.010514,3.569648 7.539062,4.878906 0.520832,0.447942 0.641758,0.562205 0.6875,0.609375 0.0017,-0.03374 0.03858,-0.198739 0.02344,-0.332031 -0.09904,-0.726948 -0.669373,-3.601401 -1.199219,-6.261719 -0.11462,-0.602596 -0.240017,-1.203038 -0.359375,-1.804688 -0.05488,-0.274182 -0.126941,-0.646598 -0.175781,-0.890624 -0.07768,-0.388126 -0.16628,-0.754375 -0.246094,-1.136719 -1.123258,-5.39338 -2.431374,-10.748434 -4.09375,-16.019531 -0.766596,-2.400802 -1.249752,-3.563682 -2.039063,-4.988282 -0.292133,-0.527431 -3.51906,-2.689703 -4.074218,-2.980468 -0.009,-0.0046 -0.0445,-0.0454 -0.05078,-0.04688 l -0.0039,0.0078 c -0.02028,-0.01006 -0.162615,-0.107059 -0.171875,-0.109375 l -0.0039,0.0039 c -0.0072,-0.0024 -0.0097,-0.0033 -0.01172,-0.0039 -0.03274,0.02993 0.219732,0.579502 0.492188,1.058594 2.790792,4.908279 4.623678,12.876322 3.691406,17 -0.0156,0.06408 -0.02722,0.129152 -0.05078,0.195312 -0.0012,0.0034 -0.0031,0.0091 -0.0039,0.01172 l 0,0.0039 c -0.0022,-7e-4 -0.0097,-0.0033 -0.01172,-0.0039 -0.02176,0.008 -0.08165,0.0196 -0.109375,0.02734 C 44.812983,28.753809 44.145098,27.31454 43.214844,26.097656 37.501354,18.762539 27.067892,7.9893821 16.292969,4.5976562 14.972108,4.2228853 13.822334,4.0200362 12.800781,4 Z"/>
 <path d="M 12.800781 3 C 11.098193 2.9666062 9.7542244 3.4414304 8.578125 4.4726562 C 5.7478345 6.9670915 5.2580521 12.023546 7.171875 19.025391 C 7.344463 18.694535 7.5198259 18.365819 7.7050781 18.042969 C 6.4632389 12.900442 6.6480582 11.148733 8.9960938 9.1054688 C 11.01959 7.3524921 14.224374 7.2078807 18.230469 8.6914062 C 25.35032 11.327948 33.301624 15.641212 41.398438 25.917969 C 42.162599 26.887867 42.699969 28.144587 43.351562 28.957031 C 41.277723 28.994251 38.129607 28.792032 35.417969 28.304688 C 25.216809 26.471523 15.609949 22.304512 11.105469 17.605469 C 10.702115 17.184694 10.372661 16.871333 10.371094 16.90625 C 10.369294 16.94209 11.278992 18.787629 12.390625 21.003906 L 14.0625 24.878906 L 16.546875 26.082031 C 19.249351 27.409525 22.691587 28.959758 30.167969 32.21875 C 38.358637 35.789036 42.026626 37.505263 45.746094 39.511719 C 48.726912 41.119719 51.756608 43.081367 53.285156 44.390625 C 53.805988 44.838567 53.926914 44.95283 53.972656 45 C 53.974356 44.96626 54.011234 44.801261 53.996094 44.667969 C 53.897054 43.941021 53.326721 41.066568 52.796875 38.40625 C 52.682255 37.803654 52.556858 37.203212 52.4375 36.601562 C 52.38262 36.32738 52.310559 35.954964 52.261719 35.710938 C 52.184039 35.322812 52.095439 34.956563 52.015625 34.574219 C 50.892367 29.180839 49.584251 23.825785 47.921875 18.554688 C 47.155279 16.153886 46.672123 14.991006 45.882812 13.566406 C 45.590679 13.038975 42.363752 10.876703 41.808594 10.585938 C 41.799594 10.581338 41.764093 10.540543 41.757812 10.539062 L 41.753906 10.546875 C 41.733626 10.536815 41.591291 10.439816 41.582031 10.4375 L 41.578125 10.441406 C 41.570925 10.439006 41.568406 10.4381 41.566406 10.4375 C 41.533666 10.46743 41.786138 11.017002 42.058594 11.496094 C 44.849386 16.404373 46.682272 24.372416 45.75 28.496094 C 45.7344 28.560174 45.722779 28.625246 45.699219 28.691406 C 45.698019 28.694806 45.696113 28.700525 45.695312 28.703125 L 45.695312 28.707031 C 45.693112 28.706331 45.685594 28.703725 45.683594 28.703125 C 45.661834 28.711125 45.601939 28.722729 45.574219 28.730469 C 44.812983 27.753809 44.145098 26.31454 43.214844 25.097656 C 37.501354 17.762539 27.067892 6.9893821 16.292969 3.5976562 C 14.972108 3.2228853 13.822334 3.0200362 12.800781 3 z" style="fill:#ffffff"/>
</svg>
